src/image/icons8-insta.svg

<svg xmlns="http://www.w3.org/2000/svg"  viewBox="0 0 50 50" width="20px" height="20px"><path d="M 12 3 C 7.0414839 3 3 7.0414839 3 12 L 3 38 C 3 42.958516 7.0414839 47 12 47 L 38 47 C 42.958516 47 47 42.958516 47 38 L 47 12 C 47 7.0414839 42.958516 3 38 3 L 12 3 z M 12 5 L 38 5 C 41.877484 5 45 8.1225161 45 12 L 45 38 C 45 41.877484 41.877484 45 38 45 L 12 45 C 8.1225161 45 5 41.877484 5 38 L 5 12 C 5 8.1225161 8.1225161 5 12 5 z M 38 7 C 36.904545 7 36 7.9045455 36 9 L 36 12 C 36 13.095455 36.904545 14 38 14 L 41 14 C 42.095455 14 43 13.095455 43 12 L 43 9 C 43 7.9045455 42.095455 7 41 7 L 38 7 z M 38 9 L 41 9 L 41 12 L 38 12 L 38 9 z M 25 12 C 21.331661 12 18.01623 13.540914 15.648438 16 L 8 16 A 1.0001 1.0001 0 0 0 7 17 L 7 37 C 7 40.301625 9.6983746 43 13 43 L 37 43 C 40.301625 43 43 40.301625 43 37 L 43 17 A 1.0001 1.0001 0 0 0 42 16 L 34.351562 16 C 31.98377 13.540914 28.668339 12 25 12 z M 25 14 C 31.073477 14 36 18.926523 36 25 C 36 31.073477 31.073477 36 25 36 C 18.926523 36 14 31.073477 14 25 C 14 18.926523 18.926523 14 25 14 z M 25 16 A 1.0001 1.0001 0 0 0 24.589844 16.083984 C 19.831681 16.311415 16 20.186041 16 25 C 16 29.959394 20.041635 34 25 34 C 29.958365 34 34 29.959394 34 25 C 34 20.187371 30.170385 16.313404 25.414062 16.083984 A 1.0001 1.0001 0 0 0 25 16 z M 9 18 L 14.068359 18 C 12.766308 20.024088 12 22.423973 12 25 C 12 32.158523 17.841477 38 25 38 C 32.158523 38 38 32.158523 38 25 C 38 22.423973 37.233692 20.024088 35.931641 18 L 41 18 L 41 37 C 41 39.220375 39.220375 41 37 41 L 13 41 C 10.779625 41 9 39.220375 9 37 L 9 18 z M 25 18 C 28.877635 18 32 21.121394 32 25 C 32 28.878606 28.877635 32 25 32 C 21.122365 32 18 28.878606 18 25 C 18 21.121394 21.122365 18 25 18 z"/></svg>

<svg xmlns="http://www.w3.org/2000/svg" xmlns:xlink="http://www.w3.org/1999/xlink" viewBox="0,0,256,256" width="20px" height="20px"><g fill="#ffffff" fill-rule="nonzero" stroke="none" stroke-width="1" stroke-linecap="butt" stroke-linejoin="miter" stroke-miterlimit="10" stroke-dasharray="" stroke-dashoffset="0" font-family="none" font-weight="none" font-size="none" text-anchor="none" style="mix-blend-mode: normal"><g transform="scale(5.12,5.12)"><path d="M12,3c-4.95852,0 -9,4.04148 -9,9v26c0,4.95852 4.04148,9 9,9h26c4.95852,0 9,-4.04148 9,-9v-26c0,-4.95852 -4.04148,-9 -9,-9zM12,5h26c3.87748,0 7,3.12252 7,7v26c0,3.87748 -3.12252,7 -7,7h-26c-3.87748,0 -7,-3.12252 -7,-7v-26c0,-3.87748 3.12252,-7 7,-7zM38,7c-1.09546,0 -2,0.90455 -2,2v3c0,1.09545 0.90454,2 2,2h3c1.09546,0 2,-0.90455 2,-2v-3c0,-1.09545 -0.90454,-2 -2,-2zM38,9h3v3h-3zM25,12c-3.66834,0 -6.98377,1.54091 -9.35156,4h-7.64844c-0.55226,0.00006 -0.99994,0.44774 -1,1v20c0,3.30163 2.69837,6 6,6h24c3.30163,0 6,-2.69837 6,-6v-20c-0.00006,-0.55226 -0.44774,-0.99994 -1,-1h-7.64844c-2.36779,-2.45909 -5.68322,-4 -9.35156,-4zM25,14c6.07348,0 11,4.92652 11,11c0,6.07348 -4.92652,11 -11,11c-6.07348,0 -11,-4.92652 -11,-11c0,-6.07348 4.92652,-11 11,-11zM25,16c-0.14111,-0.00126 -0.28089,0.02737 -0.41016,0.08398c-4.75816,0.22743 -8.58984,4.10206 -8.58984,8.91602c0,4.95939 4.04163,9 9,9c4.95837,0 9,-4.04061 9,-9c0,-4.81263 -3.82962,-8.6866 -8.58594,-8.91602c-0.13047,-0.05716 -0.27164,-0.08579 -0.41406,-0.08398zM9,18h5.06836c-1.30205,2.02409 -2.06836,4.42397 -2.06836,7c0,7.15852 5.84148,13 13,13c7.15852,0 13,-5.84148 13,-13c0,-2.57603 -0.76631,-4.97591 -2.06836,-7h5.06836v19c0,2.22037 -1.77963,4 -4,4h-24c-2.22038,0 -4,-1.77963 -4,-4zM25,18c3.87764,0 7,3.12139 7,7c0,3.87861 -3.12236,7 -7,7c-3.87764,0 -7,-3.12139 -7,-7c0,-3.87861 3.12236,-7 7,-7z"></path></g></g></svg>
